X:20
T:Blow away ye morning breezes- hard
C:Version sent me from N. Tawton.
%%VWML:SBG-1-1-140-0
F:http://www.vwml.org/record/SBG/1/1/140
Z:Original Sibleius Transcription by Martin and Shan Graebe
%%score ( 1 2 )
L:1/8
M:2/4
I:linebreak $
K:C
V:1 treble nm=
V:2 treble 
V:1
c3/2 c/ c c | c e d c | d3/2 B/ G B | d4 | e e g e | c e f d | c2 B2 | c2 ||$ c3/2 d/ c B | 
A c G3/2 G/ | f g f d | e4 z c | e3/2 e/ g e | c e e d/B/ | c3/2 c/ B3/2 c/ | c4 |] 
V:2
x4 | x4 | x4 | x4 | x4 | x4 | E2 D2 | E2 ||$ x4 | x4 | x4 | x6 | x4 | x4 | x4 | x4 |] 

